images/3235489.svg

<?xml version="1.0" encoding="UTF-8"?>
<svg xmlns="http://www.w3.org/2000/svg" xmlns:xlink="http://www.w3.org/1999/xlink" width="300pt" height="300pt" viewBox="0 0 300 300" version="1.1">
<defs>
<g>
<symbol overflow="visible" id="glyph0-0">
<path style="stroke:none;" d="M 0.640625 2.296875 L 0.640625 -9.171875 L 7.140625 -9.171875 L 7.140625 2.296875 Z M 1.375 1.578125 L 6.421875 1.578125 L 6.421875 -8.4375 L 1.375 -8.4375 Z M 1.375 1.578125 "/>
</symbol>
<symbol overflow="visible" id="glyph0-1">
<path style="stroke:none;" d="M 1.28125 -9.484375 L 3 -9.484375 L 7.203125 -1.546875 L 7.203125 -9.484375 L 8.453125 -9.484375 L 8.453125 0 L 6.71875 0 L 2.515625 -7.921875 L 2.515625 0 L 1.28125 0 Z M 1.28125 -9.484375 "/>
</symbol>
<symbol overflow="visible" id="glyph0-2">
<path style="stroke:none;" d="M 1.28125 -9.484375 L 2.5625 -9.484375 L 2.5625 -5.59375 L 7.21875 -5.59375 L 7.21875 -9.484375 L 8.5 -9.484375 L 8.5 0 L 7.21875 0 L 7.21875 -4.515625 L 2.5625 -4.515625 L 2.5625 0 L 1.28125 0 Z M 1.28125 -9.484375 "/>
</symbol>
<symbol overflow="visible" id="glyph0-3">
<path style="stroke:none;" d="M 1.28125 -9.484375 L 6.71875 -9.484375 L 6.71875 -8.390625 L 2.5625 -8.390625 L 2.5625 -5.609375 L 6.3125 -5.609375 L 6.3125 -4.53125 L 2.5625 -4.53125 L 2.5625 0 L 1.28125 0 Z M 1.28125 -9.484375 "/>
</symbol>
</g>
</defs>
<g id="surface31941">
<rect x="0" y="0" width="300" height="300" style="fill:rgb(100%,100%,100%);fill-opacity:1;stroke:none;"/>
<path style="fill:none;stroke-width:1.2;stroke-linecap:butt;stroke-linejoin:miter;stroke:rgb(0%,0%,0%);stroke-opacity:1;stroke-miterlimit:10;" d="M 264.75 159.023438 L 244.808594 184.003906 "/>
<path style="fill:none;stroke-width:1.2;stroke-linecap:butt;stroke-linejoin:miter;stroke:rgb(0%,0%,0%);stroke-opacity:1;stroke-miterlimit:10;" d="M 256.878906 156.828125 L 240.925781 176.8125 "/>
<path style="fill:none;stroke-width:1.2;stroke-linecap:butt;stroke-linejoin:miter;stroke:rgb(0%,0%,0%);stroke-opacity:1;stroke-miterlimit:10;" d="M 253.089844 129.265625 L 264.75 159.023438 "/>
<path style="fill:none;stroke-width:1.2;stroke-linecap:butt;stroke-linejoin:miter;stroke:rgb(0%,0%,0%);stroke-opacity:1;stroke-miterlimit:10;" d="M 244.808594 184.003906 L 213.207031 179.222656 "/>
<path style="fill:none;stroke-width:1.2;stroke-linecap:butt;stroke-linejoin:miter;stroke:rgb(0%,0%,0%);stroke-opacity:1;stroke-miterlimit:10;" d="M 213.207031 179.222656 L 201.542969 149.460938 "/>
<path style="fill:none;stroke-width:1.2;stroke-linecap:butt;stroke-linejoin:miter;stroke:rgb(0%,0%,0%);stroke-opacity:1;stroke-miterlimit:10;" d="M 219.042969 173.5 L 209.710938 149.695312 "/>
<path style="fill:none;stroke-width:1.2;stroke-linecap:butt;stroke-linejoin:miter;stroke:rgb(0%,0%,0%);stroke-opacity:1;stroke-miterlimit:10;" d="M 201.542969 149.460938 L 221.484375 124.484375 "/>
<path style="fill:none;stroke-width:1.2;stroke-linecap:butt;stroke-linejoin:miter;stroke:rgb(0%,0%,0%);stroke-opacity:1;stroke-miterlimit:10;" d="M 201.542969 149.460938 L 169.941406 144.683594 "/>
<path style="fill:none;stroke-width:1.2;stroke-linecap:butt;stroke-linejoin:miter;stroke:rgb(0%,0%,0%);stroke-opacity:1;stroke-miterlimit:10;" d="M 221.484375 124.484375 L 253.089844 129.265625 "/>
<path style="fill:none;stroke-width:1.2;stroke-linecap:butt;stroke-linejoin:miter;stroke:rgb(0%,0%,0%);stroke-opacity:1;stroke-miterlimit:10;" d="M 223.519531 132.398438 L 248.804688 136.222656 "/>
<path style="fill:none;stroke-width:1.2;stroke-linecap:butt;stroke-linejoin:miter;stroke:rgb(0%,0%,0%);stroke-opacity:1;stroke-miterlimit:10;" d="M 169.941406 144.683594 L 164.109375 129.800781 "/>
<path style="fill:none;stroke-width:1.2;stroke-linecap:butt;stroke-linejoin:miter;stroke:rgb(0%,0%,100%);stroke-opacity:1;stroke-miterlimit:10;" d="M 164.109375 129.800781 L 158.28125 114.921875 "/>
<path style="fill:none;stroke-width:1.2;stroke-linecap:butt;stroke-linejoin:miter;stroke:rgb(0%,0%,100%);stroke-opacity:1;stroke-miterlimit:10;" d="M 158.28125 114.921875 L 142.480469 112.53125 "/>
<path style="fill:none;stroke-width:1.2;stroke-linecap:butt;stroke-linejoin:miter;stroke:rgb(0%,0%,0%);stroke-opacity:1;stroke-miterlimit:10;" d="M 142.480469 112.53125 L 126.675781 110.140625 "/>
<path style=" stroke:none;fill-rule:nonzero;fill:rgb(100%,100%,100%);fill-opacity:1;" d="M 148.28125 106.921875 L 168.28125 106.921875 L 168.28125 122.921875 L 148.28125 122.921875 Z M 148.28125 106.921875 "/>
<g style="fill:rgb(0%,0%,100%);fill-opacity:1;">
  <use xlink:href="#glyph0-1" x="148.28125" y="119.297852"/>
  <use xlink:href="#glyph0-2" x="158.250977" y="119.297852"/>
</g>
<path style="fill:none;stroke-width:1.2;stroke-linecap:butt;stroke-linejoin:miter;stroke:rgb(0%,0%,0%);stroke-opacity:1;stroke-miterlimit:10;" d="M 126.675781 110.140625 L 120.847656 95.261719 "/>
<path style="fill:none;stroke-width:1.2;stroke-linecap:butt;stroke-linejoin:miter;stroke:rgb(0%,0%,100%);stroke-opacity:1;stroke-miterlimit:10;" d="M 120.847656 95.261719 L 115.015625 80.382812 "/>
<path style="fill:none;stroke-width:1.2;stroke-linecap:butt;stroke-linejoin:miter;stroke:rgb(0%,0%,0%);stroke-opacity:1;stroke-miterlimit:10;" d="M 118.507812 109.910156 L 113.84375 98.007812 "/>
<path style="fill:none;stroke-width:1.2;stroke-linecap:butt;stroke-linejoin:miter;stroke:rgb(0%,0%,100%);stroke-opacity:1;stroke-miterlimit:10;" d="M 113.84375 98.007812 L 109.179688 86.101562 "/>
<path style="fill:none;stroke-width:1.2;stroke-linecap:butt;stroke-linejoin:miter;stroke:rgb(0%,0%,0%);stroke-opacity:1;stroke-miterlimit:10;" d="M 106.734375 135.121094 L 126.675781 110.140625 "/>
<path style="fill:none;stroke-width:1.2;stroke-linecap:butt;stroke-linejoin:miter;stroke:rgb(0%,0%,100%);stroke-opacity:1;stroke-miterlimit:10;" d="M 115.015625 80.382812 L 99.214844 77.992188 "/>
<path style="fill:none;stroke-width:1.2;stroke-linecap:butt;stroke-linejoin:miter;stroke:rgb(0%,0%,0%);stroke-opacity:1;stroke-miterlimit:10;" d="M 99.214844 77.992188 L 83.414062 75.601562 "/>
<path style=" stroke:none;fill-rule:nonzero;fill:rgb(100%,100%,100%);fill-opacity:1;" d="M 110.015625 72.382812 L 120.015625 72.382812 L 120.015625 88.382812 L 110.015625 88.382812 Z M 110.015625 72.382812 "/>
<g style="fill:rgb(0%,0%,100%);fill-opacity:1;">
  <use xlink:href="#glyph0-1" x="110.015625" y="84.758789"/>
</g>
<path style="fill:none;stroke-width:1.2;stroke-linecap:butt;stroke-linejoin:miter;stroke:rgb(0%,0%,0%);stroke-opacity:1;stroke-miterlimit:10;" d="M 83.414062 75.601562 L 73.441406 88.089844 "/>
<path style="fill:none;stroke-width:1.2;stroke-linecap:butt;stroke-linejoin:miter;stroke:rgb(0%,0%,100%);stroke-opacity:1;stroke-miterlimit:10;" d="M 73.441406 88.089844 L 63.472656 100.582031 "/>
<path style="fill:none;stroke-width:1.2;stroke-linecap:butt;stroke-linejoin:miter;stroke:rgb(0%,0%,0%);stroke-opacity:1;stroke-miterlimit:10;" d="M 87.296875 82.792969 L 79.320312 92.785156 "/>
<path style="fill:none;stroke-width:1.2;stroke-linecap:butt;stroke-linejoin:miter;stroke:rgb(0%,0%,100%);stroke-opacity:1;stroke-miterlimit:10;" d="M 79.320312 92.785156 L 71.34375 102.773438 "/>
<path style="fill:none;stroke-width:1.2;stroke-linecap:butt;stroke-linejoin:miter;stroke:rgb(0%,0%,100%);stroke-opacity:1;stroke-miterlimit:10;" d="M 63.472656 100.582031 L 69.300781 115.460938 "/>
<path style="fill:none;stroke-width:1.2;stroke-linecap:butt;stroke-linejoin:miter;stroke:rgb(0%,0%,0%);stroke-opacity:1;stroke-miterlimit:10;" d="M 69.300781 115.460938 L 75.132812 130.339844 "/>
<path style=" stroke:none;fill-rule:nonzero;fill:rgb(100%,100%,100%);fill-opacity:1;" d="M 58.472656 92.582031 L 68.472656 92.582031 L 68.472656 108.582031 L 58.472656 108.582031 Z M 58.472656 92.582031 "/>
<g style="fill:rgb(0%,0%,100%);fill-opacity:1;">
  <use xlink:href="#glyph0-1" x="58.472656" y="104.958008"/>
</g>
<path style="fill:none;stroke-width:1.2;stroke-linecap:butt;stroke-linejoin:miter;stroke:rgb(0%,0%,0%);stroke-opacity:1;stroke-miterlimit:10;" d="M 75.132812 130.339844 L 106.734375 135.121094 "/>
<path style="fill:none;stroke-width:1.2;stroke-linecap:butt;stroke-linejoin:miter;stroke:rgb(0%,0%,0%);stroke-opacity:1;stroke-miterlimit:10;" d="M 79.417969 123.382812 L 104.699219 127.207031 "/>
<path style="fill:none;stroke-width:1.2;stroke-linecap:butt;stroke-linejoin:miter;stroke:rgb(0%,0%,0%);stroke-opacity:1;stroke-miterlimit:10;" d="M 106.734375 135.121094 L 118.398438 164.878906 "/>
<path style="fill:none;stroke-width:1.2;stroke-linecap:butt;stroke-linejoin:miter;stroke:rgb(0%,0%,0%);stroke-opacity:1;stroke-miterlimit:10;" d="M 118.398438 164.878906 L 150 169.660156 "/>
<path style="fill:none;stroke-width:1.2;stroke-linecap:butt;stroke-linejoin:miter;stroke:rgb(0%,0%,0%);stroke-opacity:1;stroke-miterlimit:10;" d="M 120.433594 172.792969 L 145.714844 176.617188 "/>
<path style="fill:none;stroke-width:1.2;stroke-linecap:butt;stroke-linejoin:miter;stroke:rgb(0%,0%,0%);stroke-opacity:1;stroke-miterlimit:10;" d="M 98.457031 189.859375 L 118.398438 164.878906 "/>
<path style="fill:none;stroke-width:1.2;stroke-linecap:butt;stroke-linejoin:miter;stroke:rgb(0%,0%,0%);stroke-opacity:1;stroke-miterlimit:10;" d="M 150 169.660156 L 161.660156 199.417969 "/>
<path style="fill:none;stroke-width:1.2;stroke-linecap:butt;stroke-linejoin:miter;stroke:rgb(0%,0%,0%);stroke-opacity:1;stroke-miterlimit:10;" d="M 161.660156 199.417969 L 141.71875 224.398438 "/>
<path style="fill:none;stroke-width:1.2;stroke-linecap:butt;stroke-linejoin:miter;stroke:rgb(0%,0%,0%);stroke-opacity:1;stroke-miterlimit:10;" d="M 153.789062 197.226562 L 137.835938 217.207031 "/>
<path style="fill:none;stroke-width:1.2;stroke-linecap:butt;stroke-linejoin:miter;stroke:rgb(0%,0%,0%);stroke-opacity:1;stroke-miterlimit:10;" d="M 141.71875 224.398438 L 110.117188 219.617188 "/>
<path style="fill:none;stroke-width:1.2;stroke-linecap:butt;stroke-linejoin:miter;stroke:rgb(0%,0%,0%);stroke-opacity:1;stroke-miterlimit:10;" d="M 110.117188 219.617188 L 98.457031 189.859375 "/>
<path style="fill:none;stroke-width:1.2;stroke-linecap:butt;stroke-linejoin:miter;stroke:rgb(0%,0%,0%);stroke-opacity:1;stroke-miterlimit:10;" d="M 115.953125 213.898438 L 106.625 190.089844 "/>
<path style="fill:none;stroke-width:1.2;stroke-linecap:butt;stroke-linejoin:miter;stroke:rgb(0%,0%,0%);stroke-opacity:1;stroke-miterlimit:10;" d="M 98.457031 189.859375 L 66.851562 185.078125 "/>
<path style="fill:none;stroke-width:1.2;stroke-linecap:butt;stroke-linejoin:miter;stroke:rgb(0%,0%,0%);stroke-opacity:1;stroke-miterlimit:10;" d="M 66.851562 185.078125 L 51.050781 182.6875 "/>
<path style="fill:none;stroke-width:1.2;stroke-linecap:butt;stroke-linejoin:miter;stroke:rgb(20%,80%,80%);stroke-opacity:1;stroke-miterlimit:10;" d="M 51.050781 182.6875 L 35.25 180.296875 "/>
<path style="fill:none;stroke-width:1.2;stroke-linecap:butt;stroke-linejoin:miter;stroke:rgb(0%,0%,0%);stroke-opacity:1;stroke-miterlimit:10;" d="M 66.851562 185.078125 L 64.460938 200.878906 "/>
<path style="fill:none;stroke-width:1.2;stroke-linecap:butt;stroke-linejoin:miter;stroke:rgb(20%,80%,80%);stroke-opacity:1;stroke-miterlimit:10;" d="M 64.460938 200.878906 L 62.070312 216.679688 "/>
<path style="fill:none;stroke-width:1.2;stroke-linecap:butt;stroke-linejoin:miter;stroke:rgb(0%,0%,0%);stroke-opacity:1;stroke-miterlimit:10;" d="M 66.851562 185.078125 L 69.242188 169.277344 "/>
<path style="fill:none;stroke-width:1.2;stroke-linecap:butt;stroke-linejoin:miter;stroke:rgb(20%,80%,80%);stroke-opacity:1;stroke-miterlimit:10;" d="M 69.242188 169.277344 L 71.632812 153.476562 "/>
<path style=" stroke:none;fill-rule:nonzero;fill:rgb(100%,100%,100%);fill-opacity:1;" d="M 27.25 172.296875 L 35.25 172.296875 L 35.25 188.296875 L 27.25 188.296875 Z M 27.25 172.296875 "/>
<g style="fill:rgb(20%,80%,80%);fill-opacity:1;">
  <use xlink:href="#glyph0-3" x="27.25" y="184.672852"/>
</g>
<path style=" stroke:none;fill-rule:nonzero;fill:rgb(100%,100%,100%);fill-opacity:1;" d="M 58.070312 208.679688 L 66.070312 208.679688 L 66.070312 224.679688 L 58.070312 224.679688 Z M 58.070312 208.679688 "/>
<g style="fill:rgb(20%,80%,80%);fill-opacity:1;">
  <use xlink:href="#glyph0-3" x="58.070312" y="221.055664"/>
</g>
<path style=" stroke:none;fill-rule:nonzero;fill:rgb(100%,100%,100%);fill-opacity:1;" d="M 67.632812 145.476562 L 75.632812 145.476562 L 75.632812 161.476562 L 67.632812 161.476562 Z M 67.632812 145.476562 "/>
<g style="fill:rgb(20%,80%,80%);fill-opacity:1;">
  <use xlink:href="#glyph0-3" x="67.632812" y="157.852539"/>
</g>
</g>
</svg>

<svg xmlns="http://www.w3.org/2000/svg" xmlns:xlink="http://www.w3.org/1999/xlink" width="300pt" height="300pt" viewBox="0 0 300 300"><defs><symbol overflow="visible"><path d="M.64 2.297v-11.47h6.5v11.47zm.735-.72h5.047V-8.436H1.375zm0 0"/></symbol><symbol overflow="visible" id="a"><path d="M1.28-9.484H3l4.203 7.937v-7.937h1.25V0H6.72L2.515-7.922V0H1.28zm0 0"/></symbol><symbol overflow="visible" id="b"><path d="M1.28-9.484h1.282v3.89H7.22v-3.89H8.5V0H7.22v-4.516H2.562V0H1.28zm0 0"/></symbol><symbol overflow="visible" id="c"><path d="M1.28-9.484h5.44v1.093H2.562v2.78h3.75v1.08h-3.75V0H1.28zm0 0"/></symbol></defs><g><path fill="#fff" d="M0 0h300v300H0z"/><path d="M264.75 159.023l-19.94 24.98M256.88 156.828l-15.954 19.984M253.09 129.266l11.66 29.757M244.81 184.004l-31.603-4.78M213.207 179.223l-11.664-29.762M219.043 173.5l-9.332-23.805M201.543 149.46l19.94-24.976M201.543 149.46l-31.602-4.776M221.484 124.484l31.606 4.782M223.52 132.398l25.285 3.825M169.94 144.684l-5.83-14.883" stroke-width="1.2" stroke="#000" stroke-miterlimit="10" fill="none"/><path d="M164.11 129.8l-5.83-14.878M158.28 114.922l-15.8-2.39" stroke-width="1.2" stroke="#00f" stroke-miterlimit="10" fill="none"/><path d="M142.48 112.53l-15.804-2.39" stroke-width="1.2" stroke="#000" stroke-miterlimit="10" fill="none"/><path d="M148.28 106.922h20v16h-20zm0 0" fill="#fff"/><g fill="#00f"><use xlink:href="#a" x="148.281" y="119.298"/><use xlink:href="#b" x="158.251" y="119.298"/></g><path d="M126.676 110.14l-5.828-14.878" stroke-width="1.2" stroke="#000" stroke-miterlimit="10" fill="none"/><path d="M120.848 95.262l-5.832-14.88" stroke-width="1.2" stroke="#00f" stroke-miterlimit="10" fill="none"/><path d="M118.508 109.91l-4.664-11.902" stroke-width="1.2" stroke="#000" stroke-miterlimit="10" fill="none"/><path d="M113.844 98.008l-4.664-11.906" stroke-width="1.2" stroke="#00f" stroke-miterlimit="10" fill="none"/><path d="M106.734 135.12l19.942-24.98" stroke-width="1.2" stroke="#000" stroke-miterlimit="10" fill="none"/><path d="M115.016 80.383l-15.8-2.39" stroke-width="1.2" stroke="#00f" stroke-miterlimit="10" fill="none"/><path d="M99.215 77.992l-15.8-2.39" stroke-width="1.2" stroke="#000" stroke-miterlimit="10" fill="none"/><path d="M110.016 72.383h10v16h-10zm0 0" fill="#fff"/><use xlink:href="#a" x="110.016" y="84.759" fill="#00f"/><path d="M83.414 75.602L73.44 88.09" stroke-width="1.2" stroke="#000" stroke-miterlimit="10" fill="none"/><path d="M73.44 88.09l-9.967 12.492" stroke-width="1.2" stroke="#00f" stroke-miterlimit="10" fill="none"/><path d="M87.297 82.793l-7.977 9.992" stroke-width="1.2" stroke="#000" stroke-miterlimit="10" fill="none"/><path d="M79.32 92.785l-7.976 9.988M63.473 100.582l5.828 14.88" stroke-width="1.2" stroke="#00f" stroke-miterlimit="10" fill="none"/><path d="M69.3 115.46l5.833 14.88" stroke-width="1.2" stroke="#000" stroke-miterlimit="10" fill="none"/><path d="M58.473 92.582h10v16h-10zm0 0" fill="#fff"/><use xlink:href="#a" x="58.473" y="104.958" fill="#00f"/><path d="M75.133 130.34l31.6 4.78M79.418 123.383l25.28 3.824M106.734 135.12l11.664 29.76M118.398 164.88L150 169.66M120.434 172.793l25.28 3.824M98.457 189.86l19.94-24.98M150 169.66l11.66 29.758M161.66 199.418l-19.94 24.98M153.79 197.227l-15.954 19.98M141.72 224.398l-31.603-4.78M110.117 219.617l-11.66-29.758M115.953 213.898l-9.328-23.808M98.457 189.86l-31.605-4.782M66.852 185.078l-15.8-2.39" stroke-width="1.2" stroke="#000" stroke-miterlimit="10" fill="none"/><path d="M51.05 182.688l-15.8-2.39" stroke-width="1.2" stroke="#3cc" stroke-miterlimit="10" fill="none"/><path d="M66.852 185.078l-2.39 15.8" stroke-width="1.2" stroke="#000" stroke-miterlimit="10" fill="none"/><path d="M64.46 200.88l-2.39 15.8" stroke-width="1.2" stroke="#3cc" stroke-miterlimit="10" fill="none"/><path d="M66.852 185.078l2.39-15.8" stroke-width="1.2" stroke="#000" stroke-miterlimit="10" fill="none"/><path d="M69.242 169.277l2.39-15.8" stroke-width="1.2" stroke="#3cc" stroke-miterlimit="10" fill="none"/><path d="M27.25 172.297h8v16h-8zm0 0" fill="#fff"/><use xlink:href="#c" x="27.25" y="184.673" fill="#3cc"/><path d="M58.07 208.68h8v16h-8zm0 0" fill="#fff"/><use xlink:href="#c" x="58.07" y="221.056" fill="#3cc"/><path d="M67.633 145.477h8v16h-8zm0 0" fill="#fff"/><use xlink:href="#c" x="67.633" y="157.853" fill="#3cc"/></g></svg>
